!!!!SEGMENT: pl-kk--kk-i-7--115_anonim--pange-lingua.krn
!!!cenid: 16xx:954
!!!COM: Anonim
!!!COM-rismID: pe30004985
!!!CDT:
!!!CNT:
!!!OTL: Pange lingua
!!!PDT:
!!!AGN: Sacred
!!!SMS-siglum: PL-Kk
!!!SMS-shelfmark: Kk.I.7
!!!SMS-shelfwork: 115 W
!!!SMS-variant:
!!!SMS-altvar:
!!!NIFC-rismSourceID: 300258077
!!!NIFC-rismChildID: 300258192
!!!NIFC-islandoraID: pl-kk:1956
!!!URL-pdf-islandora: https://repozytorium.nifc.pl/islandora/object/pl-kk%3A1956/datastream/PDF/view
!!!URL-scan: https://polish.musicsources.pl/pl/lokalizacje/galeria/rekopisy/6140 @EN{Scan on Polish Music Sources Website} @PL{Skany w portalu Dziedzictwo Muzyki Polskiej w otwartym dostępie}
!!!ONB-nifc: UWAGA: C (skan 0084, s.160-161), A (0162, s.144-145), T(0249, s.160-161), B(0336, s.156-157). Następny utwór: Nicolai solemnia
!!!AIN: 1 alto 1 bass 1 soprn 1 tenor
!!!key:
**kern	**text	**text	**text	**text	**kern	**text	**text	**text	**text	**kern	**text	**text	**text	**text	**kern	**text	**text	**text	**text
*part4	*part4	*part4	*part4	*part4	*part3	*part3	*part3	*part3	*part3	*part2	*part2	*part2	*part2	*part2	*part1	*part1	*part1	*part1	*part1
*staff4	*staff4	*staff4	*staff4	*staff4	*staff3	*staff3	*staff3	*staff3	*staff3	*staff2	*staff2	*staff2	*staff2	*staff2	*staff1	*staff1	*staff1	*staff1	*staff1
*Ibass	*	*	*	*	*Itenor	*	*	*	*	*Ialto	*	*	*	*	*Isoprn	*	*	*	*
*I"BASSVS.	*	*	*	*	*I"TENOR.	*	*	*	*	*I"ALTVS.	*	*	*	*	*I"CANTVS.	*	*	*	*
*I'B	*	*	*	*	*I'T	*	*	*	*	*I'A	*	*	*	*	*I'S	*	*	*	*
*clefF4	*	*	*	*	*clefC4	*	*	*	*	*clefC3	*	*	*	*	*clefC4	*	*	*	*
*k[]	*	*	*	*	*k[]	*	*	*	*	*k[]	*	*	*	*	*k[]	*	*	*	*
*a:	*	*	*	*	*a:	*	*	*	*	*a:	*	*	*	*	*a:	*	*	*	*
*M2/1	*	*	*	*	*M2/1	*	*	*	*	*M2/1	*	*	*	*	*M2/1	*	*	*	*
*met(c|)	*	*	*	*	*met(c|)	*	*	*	*	*met(c|)	*	*	*	*	*	*	*	*	*
=1-	=1-	=1-	=1-	=1-	=1-	=1-	=1-	=1-	=1-	=1-	=1-	=1-	=1-	=1-	=1-	=1-	=1-	=1-	=1-
*all\right	*	*	*	*	*all\right	*	*	*	*	*all\right	*	*	*	*	*all\right	*	*	*	*
*2\right	*	*	*	*	*2\right	*	*	*	*	*2\right	*	*	*	*	*2\right	*	*	*	*
!	!	!	!	!	!	!	!	!	!	!LO:TX:t=P:problem=kreska pseudotaktowa	!	!	!	!	!	!	!	!	!
*	*	*	*	*	*	*	*	*	*	*	*	*	*	*	*met(c|)	*	*	*	*
1E	Pan-	No-	Ver-	Tan-	1E	Pan-	No-	Ver-	Tan-	1B	Pan-	No-	Ver-	Tan-	1G	Pan-	No-	Ver-	Tan-
!LO:TX:t=P:problem=kreska pseudotaktowa	!	!	!	!	!LO:TX:t=P:problem=kreska pseudotaktowa	!	!	!	!	!LO:TX:t=P:problem=2\right&colon; global	!	!	!	!	!LO:TX:t=P:problem=kreska pseudotaktowa	!	!	!	!
1D	-ge	-bis	-bum	-tum	1F	-ge	-bis	-bum	-tum	2d\	-ge	-bis	-bum	-tum	1A	-ge	-bis	-bum	-tum
.	.	.	.	.	.	.	.	.	.	2.d\	lin-	da-	ca-	er-	.	.	.	.	.
=2-	=2-	=2-	=2-	=2-	=2-	=2-	=2-	=2-	=2-	=2-	=2-	=2-	=2-	=2-	=2-	=2-	=2-	=2-	=2-
1AA	lin-	na-	ca-	er-	1E	lin-	na-	ca-	er-	.	.	.	.	.	1A	lin-	da-	ca-	er-
.	.	.	.	.	.	.	.	.	.	8c/L	.	.	-ro	-go	.	.	.	.	.
.	.	.	.	.	.	.	.	.	.	8B/J	.	.	.	.	.	.	.	.	.
!	!	!	!	!	!	!	!	!	!	!LO:TX:a:t=P:problem=# below	!	!	!	!	!	!	!	!	!
!	!	!	!	!	!	!	!	!	!	!LO:TX:t=P:problem=kreska pseudotaktowa	!	!	!	!	!	!	!	!	!
.	.	.	.	.	.	.	.	.	.	2c#X/	-gua	-tus	.	.	.	.	.	.	.
!LO:TX:t=P:problem=kreska pseudotaktowa	!	!	!	!	!LO:TX:t=P:problem=kreska pseudotaktowa	!	!	!	!	!	!	!	!	!	!LO:TX:t=P:problem=kreska pseudotaktowa	!	!	!	!
1D	-gua	-tus	-ro	-go	1D	-gua	-tus	-ro	-go	2d\	glo-	no-	pa-	ſa-	1F	-gua	-tus	-ro	-go
.	.	.	.	.	.	.	.	.	.	4A/	.	.	.	.	.	.	.	.	.
!	!	!	!	!	!	!	!	!	!	!LO:TX:t=P:problem=kreska pseudotaktowa	!	!	!	!	!	!	!	!	!
.	.	.	.	.	.	.	.	.	.	4B/	.	.	.	.	.	.	.	.	.
=3-	=3-	=3-	=3-	=3-	=3-	=3-	=3-	=3-	=3-	=3-	=3-	=3-	=3-	=3-	=3-	=3-	=3-	=3-	=3-
2.C/	glo-	no-	Pa-	ſa-	1G	glo-	no-	pa-	ſa-	4c/ny	.	.	.	.	2.E/	glo-	no-	pa-	ſa-
.	.	.	.	.	.	.	.	.	.	4d\	.	.	.	.	.	.	.	.	.
.	.	.	.	.	.	.	.	.	.	2.e\	.	.	.	.	.	.	.	.	.
4D/	.	.	.	.	.	.	.	.	.	.	.	.	.	.	4F/	.	.	.	.
2E\	.	.	.	.	1G	-ri-	-bis	-nem	-cra-	.	.	.	.	.	2G/	.	.	.	.
.	.	.	.	.	.	.	.	.	.	4f\	.	.	.	.	.	.	.	.	.
!LO:TX:t=P:problem=kreska pseudotaktowa	!	!	!	!	!	!	!	!	!	!LO:TX:t=P:problem=kreska pseudotaktowa	!	!	!	!	!LO:TX:t=P:problem=kreska pseudotaktowa	!	!	!	!
2E\	-ri-	-bis	-nem	-cra-	.	.	.	.	.	2.g\	-ri-	-bis	-nem	-cra-	2C/	-ri-	-bis	-nem	-cra-
=4-	=4-	=4-	=4-	=4-	=4-	=4-	=4-	=4-	=4-	=4-	=4-	=4-	=4-	=4-	=4-	=4-	=4-	=4-	=4-
*lig	*	*	*	*	*lig	*	*	*	*	*	*	*	*	*	*	*	*	*	*
1F	-o-	na-	Ve-	-men-	1A	-o-	na-	Ve-	-men-	.	.	.	.	.	2c\	-o-	na-	Ve-	-men-
.	.	.	.	.	.	.	.	.	.	4f\	.	.	.	.	.	.	.	.	.
.	.	.	.	.	.	.	.	.	.	1f	-o-	na-	Ve-	-men-	2A/	.	.	.	.
1C	.	-tus	.	.	1c	.	.	.	.	.	.	.	.	.	1G	.	.	.	.
.	.	.	.	.	.	.	.	.	.	2e\	-ſi	-t(us)	-rum	-tum	.	.	.	.	.
*Xlig	*	*	*	*	*Xlig	*	*	*	*	*	*	*	*	*	*	*	*	*	*
=5-	=5-	=5-	=5-	=5-	=5-	=5-	=5-	=5-	=5-	=5-	=5-	=5-	=5-	=5-	=5-	=5-	=5-	=5-	=5-
!LO:TX:t=P:problem=kreska pseudotaktowa	!	!	!	!	!LO:TX:t=P:problem=kreska pseudotaktowa	!	!	!	!	!LO:TX:t=P:problem=kreska pseudotaktowa	!	!	!	!	!LO:TX:t=P:problem=kreska pseudotaktowa	!	!	!	!
1F	-ſi	.	-rum	-t(um)	1c,<	-ſi	-t(us)	-rum	-tum	1f	Cor-	ex	Ver-	Ve-	1A,<	-ſi	-t(us)	-rum	-tu(m)
2.G\	Cor-	ex	Ver-	Ve-	1B	Cor-	Ex	Ver-	Ve-	(>1d	-po-	in-	-bo	-ne-	1.G	Cor-	Ex	Ver-	Ve-
4F\	.	.	.	.	.	.	.	.	.	.	.	.	.	.	.	.	.	.	.
=6-	=6-	=6-	=6-	=6-	=6-	=6-	=6-	=6-	=6-	=6-	=6-	=6-	=6-	=6-	=6-	=6-	=6-	=6-	=6-
!	!	!	!	!	!LO:TX:b:t=P:problem=# below	!	!	!	!	!	!	!	!	!	!	!	!	!	!
2E\	-po-	in-	-bo	-ne-	1c#X	-po-	in-	-bo	-ne-	2.e\)	.	.	.	.	.	.	.	.	.
2E\	-ris	-tac-	car-	-re-	.	.	.	.	.	.	.	.	.	.	2G/	-po-	in-	-bo	-ne-
!	!	!	!	!	!	!	!	!	!	!LO:TX:t=P:problem=kreska pseudotaktowa	!	!	!	!	!	!	!	!	!
.	.	.	.	.	.	.	.	.	.	4e\	-ris	-tac-	car-	-re-	.	.	.	.	.
!	!	!	!	!	!LO:TX:t=P:problem=kreska pseudotaktowa	!	!	!	!	!	!	!	!	!	!	!	!	!	!
2D/	my-	-ta	-nem	-mur	1d	-ris	-tac-	car-	-re-	2A/	my-	-ta	-ne(m)	-mur	2F#X/	-ris	-tac-	.	-re-
!LO:TX:t=P:problem=kreska pseudotaktowa	!	!	!	!	!	!	!	!	!	!	!	!	!	!	!LO:TX:t=P:problem=kreska pseudotaktowa	!	!	!	!
2D/	-ſte-	Vir-	ef-	cer-	.	.	.	.	.	2d\	.	.	.	.	2F#/	my-	-ta	car-	-mur
=7-	=7-	=7-	=7-	=7-	=7-	=7-	=7-	=7-	=7-	=7-	=7-	=7-	=7-	=7-	=7-	=7-	=7-	=7-	=7-
*	*	*	*	*	*lig	*	*	*	*	*	*	*	*	*	*	*	*	*	*
4AA/	-ri-	-gi-	-fi-	-nu-	1cny	my-	-ta	-nem	-mur	1.e	-ſte-	Vir-	ef-	cer-	1.A	-ſte-	Vir-	-nem	.
4BB/	.	.	.	.	.	.	.	.	.	.	.	.	.	.	.	.	.	.	.
4C/	.	.	.	.	.	.	.	.	.	.	.	.	.	.	.	.	.	.	.
4D/	.	.	.	.	.	.	.	.	.	.	.	.	.	.	.	.	.	.	.
2.E\	.	.	.	.	1B	.	.	.	.	.	.	.	.	.	.	.	.	.	.
!	!	!	!	!	!	!	!	!	!	!LO:TX:t=P:problem=kreska pseudotaktowa	!	!	!	!	!LO:TX:a:t=P:problem=# below	!	!	!	!
.	.	.	.	.	.	.	.	.	.	2e\	-ri-	-gi-	-fi-	-nu-	2G#X/	ri-	-gi-	.	cer-
4E\	-um	-ne	-cit	-i	.	.	.	.	.	.	.	.	.	.	.	.	.	.	.
*	*	*	*	*	*Xlig	*	*	*	*	*	*	*	*	*	*	*	*	*	*
=8-	=8-	=8-	=8-	=8-	=8-	=8-	=8-	=8-	=8-	=8-	=8-	=8-	=8-	=8-	=8-	=8-	=8-	=8-	=8-
!LO:TX:t=P:problem=kreska pseudotaktowa	!	!	!	!	!	!	!	!	!	!	!	!	!	!	!	!	!	!	!
*	*	*	*	*	*lig	*	*	*	*	*	*	*	*	*	*	*	*	*	*
1AA	my-	Vir-	ef-	cer-	1A	-ſte-	Vir-	ef-	cer-	2c/	-um	-ne	-cit	-i	2A/	-(um)	-ne	ef-	-nu-
.	.	.	.	.	.	.	.	.	.	2.c/	my-	Vir-	ef-	cer-	1E	My-	.	-fi-	-i
1AA	-ſte-	-gi-	-fi-	-nu-	1c	.	.	.	.	.	.	.	.	.	.	.	.	.	.
.	.	.	.	.	.	.	.	.	.	4d\	.	.	.	.	.	.	.	.	.
!	!	!	!	!	!	!	!	!	!	!LO:TX:t=P:problem=kreska pseudotaktowa	!	!	!	!	!	!	!	!	!
.	.	.	.	.	.	.	.	.	.	2e\	.	.	.	.	2.A/	-ſte-	Vir-	-cit	cer-
*	*	*	*	*	*Xlig	*	*	*	*	*	*	*	*	*	*	*	*	*	*
=9-	=9-	=9-	=9-	=9-	=9-	=9-	=9-	=9-	=9-	=9-	=9-	=9-	=9-	=9-	=9-	=9-	=9-	=9-	=9-
2.BB/	.	.	.	.	1B	-ri-	-gi-	-fi-	-nu-	1.d	-ſte-	.	.	.	.	.	.	.	.
.	.	.	.	.	.	.	.	.	.	.	.	.	.	.	4G/ny	.	.	.	.
.	.	.	.	.	.	.	.	.	.	.	.	.	.	.	1G	.	.	ef-	.
4C/	.	.	.	.	.	.	.	.	.	.	.	.	.	.	.	.	.	.	.
*	*	*	*	*	*lig	*	*	*	*	*	*	*	*	*	*	*	*	*	*
2.D/	.	.	.	.	1A	-um	-ne	-cit	-i	.	.	.	.	.	.	.	.	.	.
.	.	.	.	.	.	.	.	.	.	2d\	-ri-	-gi	-fi-	-nu-	2F/ny	-ri-	-gi	-fi-	-nu-
4D/	-ri-	.	.	.	.	.	.	.	.	.	.	.	.	.	.	.	.	.	.
=10-	=10-	=10-	=10-	=10-	=10-	=10-	=10-	=10-	=10-	=10-	=10-	=10-	=10-	=10-	=10-	=10-	=10-	=10-	=10-
!LO:TX:t=P:problem=kreska pseudotaktowa	!	!	!	!	!LO:TX:t=P:problem=kreska pseudotaktowa	!	!	!	!	!	!	!	!	!	!LO:TX:t=P:problem=kreska pseudotaktowa	!	!	!	!
0GG	-um	-ne	-cit	-i.	1G,<	.	.	.	.	2d,<\	-um	-ne	-cit	-i.	0G	-um	-ne	-cit	-i.
!	!	!	!	!	!	!	!	!	!	!LO:TX:t=P:problem=kreska pseudotaktowa	!	!	!	!	!	!	!	!	!
.	.	.	.	.	.	.	.	.	.	2d\	ſan-	et	Fit-	Et	.	.	.	.	.
*	*	*	*	*	*Xlig	*	*	*	*	*	*	*	*	*	*	*	*	*	*
.	.	.	.	.	1G	ſan-	Et	Fit-	Et	2e\	-gui-	in	-q(ue)	an-	.	.	.	.	.
.	.	.	.	.	.	.	.	.	.	1g\	-nis-	mun-	ſan-	-ti-	.	.	.	.	.
=11-	=11-	=11-	=11-	=11-	=11-	=11-	=11-	=11-	=11-	=11-	=11-	=11-	=11-	=11-	=11-	=11-	=11-	=11-	=11-
00r	.	.	.	.	1A	-gui-	in	-q(ue)	an-	.	.	.	.	.	0r	.	.	.	.
.	.	.	.	.	.	.	.	.	.	2f\	-(que)	.	.	.	.	.	.	.	.
!	!	!	!	!	!	!	!	!	!	!LO:TX:t=P:problem=kreska pseudotaktowa	!	!	!	!	!	!	!	!	!
.	.	.	.	.	1c	-nis-	mun-	ſan-	-ti-	1e	.	-do	-guis	-q(um)	.	.	.	.	.
=12-	=12-	=12-	=12-	=12-	=12-	=12-	=12-	=12-	=12-	=12-	=12-	=12-	=12-	=12-	=12-	=12-	=12-	=12-	=12-
!	!	!	!	!	!LO:TX:t=P:problem=kreska pseudotaktowa	!	!	!	!	!	!	!	!	!	!	!	!	!	!
.	.	.	.	.	1B	-(que)	-do	-guis	-q(um)	2d\	pre-	con-	Chri-	do-	1G	ſan-	Et	Fit-	Et
.	.	.	.	.	.	.	.	.	.	1g	-ti-	-ver-	-ſti	-cu-	.	.	.	.	.
.	.	.	.	.	1A	pre-	con-	Chri-	do-	.	.	.	.	.	2A/	-gui-	in	-q(ue)	an-
.	.	.	.	.	.	.	.	.	.	2f\	-o-	-ſa-	me-	-men-	1c\	-nis-	.	.	-ti-
=13-	=13-	=13-	=13-	=13-	=13-	=13-	=13-	=13-	=13-	=13-	=13-	=13-	=13-	=13-	=13-	=13-	=13-	=13-	=13-
*	*	*	*	*	*	*	*	*	*	*lig	*	*	*	*	*	*	*	*	*
1r	.	.	.	.	1G	-ti-	-ver-	-ſti	-cu-	1g	-ſi	-tus	-r(um)	-t(um)	.	.	.	.	.
.	.	.	.	.	.	.	.	.	.	.	.	.	.	.	2B\	-(que)	mun-	ſan-	-q(um)
!	!	!	!	!	!	!	!	!	!	!LO:TX:t=P:problem=kreska pseudotaktowa	!	!	!	!	!	!	!	!	!
2r	.	.	.	.	1A	-o-	-ſa-	me-	-men-	1f	.	.	.	.	2.A/	.	.	.	.
!LO:TX:t=P:problem=kreska pseudotaktowa	!	!	!	!	!	!	!	!	!	!	!	!	!	!	!	!	!	!	!
2D/	ſan-	Et	Fit-	Et	.	.	.	.	.	.	.	.	.	.	.	.	.	.	.
.	.	.	.	.	.	.	.	.	.	.	.	.	.	.	4G/	.	-do	-gu-	.
*	*	*	*	*	*	*	*	*	*	*Xlig	*	*	*	*	*	*	*	*	*
=14-	=14-	=14-	=14-	=14-	=14-	=14-	=14-	=14-	=14-	=14-	=14-	=14-	=14-	=14-	=14-	=14-	=14-	=14-	=14-
!	!	!	!	!	!LO:TX:t=P:problem=kreska pseudotaktowa	!	!	!	!	!	!	!	!	!	!	!	!	!	!
2F\	-gui-	in	-q(ue)	an-	1A,<	-ſi	-t(us)	-r(um)	-t(um)	2r	.	.	.	.	2F/	pre-	.	-is	do-
*	*	*	*	*	*	*	*	*	*	*	*	*	*ij	*	*	*	*	*	*
!	!	!	!	!	!	!	!	!	!	!	!	!	!	!	!LO:TX:t=P:problem=kreska pseudotaktowa	!	!	!	!
4A\	-nis-	mun-	ſan-	-ti-	.	.	.	.	.	2c/	ſan-	Et	Fit-	Et	2E/	-ti-	con-	Chri-	.
4G\	-q(ue)	-do	-guis	-q(um)	.	.	.	.	.	.	.	.	.	.	.	.	.	.	.
2F\	pre-	con-	Chri-	do-	1A	quem	ſpar-	Et	no-	2d\	-gui-	in	-q(ue)	an-	4F/	-o-	-ver-	.	.
.	.	.	.	.	.	.	.	.	.	.	.	.	.	.	4G/	.	.	.	.
2D/	-ti-	-ver-	-ſti	-cu-	.	.	.	.	.	4f\	-nis-	mun-	ſan-	-ti-	4A/	.	.	-ſti	-cu-
!	!	!	!	!	!	!	!	!	!	!LO:TX:t=P:problem=kreska pseudotaktowa	!	!	!	!	!	!	!	!	!
.	.	.	.	.	.	.	.	.	.	4f\	-q(ue)	-do	-guis	-q(um)	4F/	.	.	.	.
=15-	=15-	=15-	=15-	=15-	=15-	=15-	=15-	=15-	=15-	=15-	=15-	=15-	=15-	=15-	=15-	=15-	=15-	=15-	=15-
2C/	-o-	-ſa-	me-	-men-	1c	in	-ſo	ſi	-vo	2e\	pre-	con-	Chri-	do-	2G/	.	-ſa-	me-	-men-
!	!	!	!	!	!	!	!	!	!	!LO:TX:t=P:problem=kreska pseudotaktowa	!	!	!	!	!	!	!	!	!
4AA/	.	.	.	.	.	.	.	.	.	2c/	-ti-	-ver-	-ſti	-cu-	2.F/	.	.	.	.
!LO:TX:t=P:problem=kreska pseudotaktowa	!	!	!	!	!	!	!	!	!	!	!	!	!	!	!	!	!	!	!
4BB-X/	.	.	.	.	.	.	.	.	.	.	.	.	.	.	.	.	.	.	.
1C	-ſi	-tus	-r(um)	-t(um)	1G	mun-	Ver-	ſen-	ce-	1c	-o-	-ſa-	me-	-men-	.	.	.	.	.
.	.	.	.	.	.	.	.	.	.	.	.	.	.	.	8E/L	.	.	.	.
.	.	.	.	.	.	.	.	.	.	.	.	.	.	.	8D/J	.	.	.	.
!	!	!	!	!	!	!	!	!	!	!	!	!	!	!	!LO:TX:t=P:problem=kreska pseudotaktowa	!	!	!	!
.	.	.	.	.	.	.	.	.	.	.	.	.	.	.	2E/	.	.	.	.
=16-	=16-	=16-	=16-	=16-	=16-	=16-	=16-	=16-	=16-	=16-	=16-	=16-	=16-	=16-	=16-	=16-	=16-	=16-	=16-
!	!	!	!	!	!LO:TX:t=P:problem=kreska pseudotaktowa	!	!	!	!	!	!	!	!	!	!	!	!	!	!
2FF/	quem	ſpar-	et	no-	1F	-di	-bi	-ſ(us)	-dat	2c/	-ſi	-tus	-r(um)	-t(um)	2F/	-ſi	-t(us)	-rum	-tum
*	*	*	*	*	*	*	*	*	*	*	*	*	*Xij	*	*	*	*	*	*
4FF/	in	-ſo	ſi	-vo	.	.	.	.	.	4c/	quem	ſpar-	et	no-	4A/	que(m)	ſpar-	Et	No-
!LO:TX:t=P:problem=kreska pseudotaktowa	!	!	!	!	!	!	!	!	!	!LO:TX:t=P:problem=kreska pseudotaktowa	!	!	!	!	!LO:TX:t=P:problem=kreska pseudotaktowa	!	!	!	!
4FF/	mun-	ver-	ſen-	ce-	.	.	.	.	.	4c/	in	-ſo	ſi	-vo	4A/	in	-ſo	ſi	-vo
*	*	*	*	*	*lig	*	*	*	*	*	*	*	*	*	*	*	*	*	*
(<2C/	-di	-bi	-ſ(us)	-dat	1G	pre-	ſe-	de-	ri-	2c/	mun-	ver-	ſen-	ce-	4E/	mun-	ver-	ſen-	ce-
.	.	.	.	.	.	.	.	.	.	.	.	.	.	.	4F/	-di	-bi	-ſ(us)	-dat
2BBny/)	.	.	.	.	.	.	.	.	.	2d\	-di	-bi	-ſ(us)	-dat	1G/	pre-	ſe-	de-	ri-
=17-	=17-	=17-	=17-	=17-	=17-	=17-	=17-	=17-	=17-	=17-	=17-	=17-	=17-	=17-	=17-	=17-	=17-	=17-	=17-
!	!	!	!	!	!LO:TX:t=P:problem=kreska pseudotaktowa	!	!	!	!	!	!	!	!	!	!	!	!	!	!
1.AA	pre-	ſe-	de-	ri-	1A	.	.	.	.	1.c	pre-	ſe-	de-	ri-	.	.	.	.	.
.	.	.	.	.	.	.	.	.	.	.	.	.	.	.	4ryy	.	.	.	.
!	!	!	!	!	!	!	!	!	!	!	!	!	!	!	!LO:TX:t=P:problem=kreska pseudotaktowa	!	!	!	!
.	.	.	.	.	.	.	.	.	.	.	.	.	.	.	4E/	.	.	.	.
*	*	*	*	*	*Xlig	*	*	*	*	*	*	*	*	*	*	*	*	*	*
.	.	.	.	.	1A	-ti-	-mi-	-fi-	-tu-	.	.	.	.	.	2F#X/	.	.	.	.
2AA/	-ti-	-mi-	-fi-	-tu-	.	.	.	.	.	2c/	-ti-	-mi-	-fi-	-tu-	2F#/	-ti-	-mi-	-fi-	-tu-
=18-	=18-	=18-	=18-	=18-	=18-	=18-	=18-	=18-	=18-	=18-	=18-	=18-	=18-	=18-	=18-	=18-	=18-	=18-	=18-
!	!	!	!	!	!	!	!	!	!	!LO:TX:t=P:problem=kreska pseudotaktowa	!	!	!	!	!LO:TX:t=P:problem=kreska pseudotaktowa	!	!	!	!
1GG,<	-u(m)	-ne,	-cit,	-i.	1D	-um!	-ne	cit.	-i	1B,<	-um	-ne	-cit	-i	1G	-um	-ne	-cit	-i
*	*	*	*	*	*lig	*	*	*	*	*	*	*	*	*	*	*	*	*	*
1FF	Fruc-	ſu-	Ad	Prae-	1F	.	.	.	.	1A	Fruc-	ſu-	Ad	Prae-	2rF	.	.	.	.
.	.	.	.	.	.	.	.	.	.	.	.	.	.	.	1C/	Fruc-	ſu-	Ad	Prae-
=19-	=19-	=19-	=19-	=19-	=19-	=19-	=19-	=19-	=19-	=19-	=19-	=19-	=19-	=19-	=19-	=19-	=19-	=19-	=19-
!	!	!	!	!	!LO:TX:t=P:problem=kreska pseudotaktowa	!	!	!	!	!	!	!	!	!	!	!	!	!	!
2AA/	-t(us)	-i	fir-	ſtet	1E,<	.	.	.	.	1c	-t(us)	-i	fir-	ſtet	.	.	.	.	.
!	!	!	!	!	!	!	!	!	!	!	!	!	!	!	!LO:TX:t=P:problem=kreska pseudotaktowa	!	!	!	!
1C	.	.	.	.	.	.	.	.	.	.	.	.	.	.	2E/	.	-i	.	.
*	*	*	*	*	*Xlig	*	*	*	*	*	*	*	*	*	*	*	*	*	*
.	.	.	.	.	1C	Fruc-	ſu-	Ad	Prae-	2e\	.	.	.	.	2G/	-t(us)	mo-	fir-	-ſtet
!LO:TX:t=P:problem=kreska pseudotaktowa	!	!	!	!	!	!	!	!	!	!LO:TX:t=P:problem=kreska pseudotaktowa	!	!	!	!	!	!	!	!	!
2AA/	.	.	.	.	.	.	.	.	.	2c/	.	.	.	.	2A/	Ven-	-ras	-man-	fi-
=20-	=20-	=20-	=20-	=20-	=20-	=20-	=20-	=20-	=20-	=20-	=20-	=20-	=20-	=20-	=20-	=20-	=20-	=20-	=20-
*lig	*	*	*	*	*	*	*	*	*	*	*	*	*	*	*	*	*	*	*
1C	Ven-	mo-	-man-	fi-	1E	-tus	-i	fir-	-ſtet	4c/	Ven-	mo-	-man-	fi-	2G/	-tris	.	-d(um)	-der
.	.	.	.	.	.	.	.	.	.	4d\	-tris	-ras	-d(um)	-der	.	.	.	.	.
.	.	.	.	.	.	.	.	.	.	4e\	ge-	in-	cor-	ſyp-	2.c\	ge-	in-	cor-	ſyp-
.	.	.	.	.	.	.	.	.	.	8d\L	-ne-	-co-	.	-ple-	.	.	.	.	.
!	!	!	!	!	!	!	!	!	!	!LO:TX:t=P:problem=kreska pseudotaktowa	!	!	!	!	!	!	!	!	!
.	.	.	.	.	.	.	.	.	.	8c\J	.	.	.	.	.	.	.	.	.
!	!	!	!	!	!LO:TX:t=P:problem=kreska pseudotaktowa	!	!	!	!	!	!	!	!	!	!	!	!	!	!
1GG	-tris	-ras	-d(um)	-der	1G	Ven-	mo-	-man-	fi-	1d	-ro-	-la-	-ſyn-	-men-	.	.	.	.	.
.	.	.	.	.	.	.	.	.	.	.	.	.	.	.	8B\L	-ne-	-co-	.	.
.	.	.	.	.	.	.	.	.	.	.	.	.	.	.	8A\J	.	.	.	.
!	!	!	!	!	!	!	!	!	!	!	!	!	!	!	!LO:TX:t=P:problem=kreska pseudotaktowa	!	!	!	!
.	.	.	.	.	.	.	.	.	.	.	.	.	.	.	2B\	-ro-	-la-	.	.
*Xlig	*	*	*	*	*	*	*	*	*	*	*	*	*	*	*	*	*	*	*
=21-	=21-	=21-	=21-	=21-	=21-	=21-	=21-	=21-	=21-	=21-	=21-	=21-	=21-	=21-	=21-	=21-	=21-	=21-	=21-
2C/	ge-	in-	cor	ſyp-	1E	-tris	-ras	-dum	-der	4e\	-ſi	-t(us)	-ce-	-t(um)	2c\	-ſi	-tus	.	.
.	.	.	.	.	.	.	.	.	.	2g\	ge-	in-	.	ſup-	.	.	.	.	.
2.C/	-ne-	-co-	-ſyn-	-ple-	.	.	.	.	.	.	.	.	.	.	2.c\	ge-	in-	-ſyn-	-ple-
.	.	.	.	.	.	.	.	.	.	4f\	-ne-	-co-	.	-ple-	.	.	.	.	.
.	.	.	.	.	1G	ge-	in-	cor	ſup-	4e\	-ro-	-la-	.	-men-	.	.	.	.	.
4D/	-ro-	-la-	-ce-	-men-	.	.	.	.	.	8d\L	.	.	.	.	4B\	-ne-	-co-	.	.
.	.	.	.	.	.	.	.	.	.	8c\J	.	.	.	.	.	.	.	.	.
!LO:TX:t=P:problem=kreska pseudotaktowa	!	!	!	!	!	!	!	!	!	!	!	!	!	!	!	!	!	!	!
2E\	.	.	.	.	.	.	.	.	.	4B/	.	.	.	.	1G/	.	.	.	.
!	!	!	!	!	!	!	!	!	!	!LO:TX:t=P:problem=kreska pseudotaktowa	!	!	!	!	!	!	!	!	!
!	!	!	!	!	!	!	!	!	!	!LO:TX:b:t=P:problem=# below	!	!	!	!	!	!	!	!	!
.	.	.	.	.	.	.	.	.	.	4c#X/	.	.	.	.	.	.	.	.	.
=22-	=22-	=22-	=22-	=22-	=22-	=22-	=22-	=22-	=22-	=22-	=22-	=22-	=22-	=22-	=22-	=22-	=22-	=22-	=22-
0D	.	.	.	.	1A	-ne-	-co-	ſyn-	-ple-	0d	.	.	.	.	.	.	.	.	.
.	.	.	.	.	.	.	.	.	.	.	.	.	.	.	4F#X/	-ro-	-la-	.	.
!	!	!	!	!	!	!	!	!	!	!	!	!	!	!	!LO:TX:a:t=P:problem=# below	!	!	!	!
.	.	.	.	.	.	.	.	.	.	.	.	.	.	.	4E/	.	.	.	.
!	!	!	!	!	!	!	!	!	!	!	!	!	!	!	!LO:TX:a:t=P:problem=# above	!	!	!	!
.	.	.	.	.	1A	-ro-	-la-	-ce-	-men-	.	.	.	.	.	1F#X	.	-tus	-ce-	-men-
=23-	=23-	=23-	=23-	=23-	=23-	=23-	=23-	=23-	=23-	=23-	=23-	=23-	=23-	=23-	=23-	=23-	=23-	=23-	=23-
!	!	!	!	!	!LO:TX:t=P:problem=kreska pseudotaktowa	!	!	!	!	!	!	!	!	!	!LO:TX:t=P:problem=kreska pseudotaktowa	!	!	!	!
1GG,<	-ſi	-t(us)	-ce	-t(um)	1G,<	-ſi	-tus	-r(um)	-t(um)	1d,<	-ſi	-tus	-rum	-t(um)	1G	-ſi	.	-rum	-tu(m)
2.D/	Rex	Mi-	ſo-	ſen-	1A	Rex	Mi-	ſo-	ſen-	2.f\	Rex	Mi-	ſo-	ſen-	0r	.	.	.	.
!	!	!	!	!	!	!	!	!	!	!LO:TX:t=P:problem=kreska pseudotaktowa	!	!	!	!	!	!	!	!	!
4D/	ef-	-ro	-la	-ſu-	.	.	.	.	.	4f\	ef-	-ro	-la	-ſu-	.	.	.	.	.
=24-	=24-	=24-	=24-	=24-	=24-	=24-	=24-	=24-	=24-	=24-	=24-	=24-	=24-	=24-	=24-	=24-	=24-	=24-	=24-
4C/	-fu-	clau-	fi-	-um	1c	ef-	-ro	-la	-ſu-	4e\	-fu-	clau	fi-	-um	.	.	.	.	.
4AA/	.	.	.	.	.	.	.	.	.	4c\ny	.	.	.	.	.	.	.	.	.
4C/	.	.	.	.	.	.	.	.	.	4e\	-dit	-ſit	-des	de-	.	.	.	.	.
!LO:TX:t=P:problem=kreska pseudotaktowa	!	!	!	!	!	!	!	!	!	!	!	!	!	!	!	!	!	!	!
4D/	.	.	.	.	.	.	.	.	.	4f\	.	.	.	.	.	.	.	.	.
2E\	-dit	-ſit	-des	de	1G	-fu-	clau-	fi-	-um	2g\	gen-	or-	ſuf-	-fec-	4r	.	.	.	.
.	.	.	.	.	.	.	.	.	.	.	.	.	.	.	2c\	Rex	Mi-	ſo-	ſen-
!	!	!	!	!	!	!	!	!	!	!LO:TX:t=P:problem=kreska pseudotaktowa	!	!	!	!	!	!	!	!	!
2C/	.	.	.	.	.	.	.	.	.	2e\	-ti-	-di-	-fi-	-tu-	.	.	.	.	.
.	.	.	.	.	.	.	.	.	.	.	.	.	.	.	4c\	ef-	-ro	-la	-ſu-
=25-	=25-	=25-	=25-	=25-	=25-	=25-	=25-	=25-	=25-	=25-	=25-	=25-	=25-	=25-	=25-	=25-	=25-	=25-	=25-
!	!	!	!	!	!LO:TX:t=P:problem=kreska pseudotaktowa	!	!	!	!	!	!	!	!	!	!	!	!	!	!
2D/	gen-	or-	ſuf-	fec-	1F	-dit	-ſit	-des	de	2f\	-(um)	-ne	-cit	-i	4A/	-fu-	clau	fi-	-u(m)
.	.	.	.	.	.	.	.	.	.	.	.	.	.	.	4F/ny	.	.	.	.
*	*	*	*	*	*	*	*	*	*	*	*ij	*ij	*ij	*ij	*	*	*	*	*
4D/	-ti-	-di-	-fi-	-tu-	.	.	.	.	.	4d\	Rex	Mi-	ſo-	ſen-	4A/	-dit	-ſit	-des	de-
!LO:TX:t=P:problem=kreska pseudotaktowa	!	!	!	!	!	!	!	!	!	!	!	!	!	!	!LO:TX:t=P:problem=kreska pseudotaktowa	!	!	!	!
4D/	-(um)	-ne	-cit	-i	.	.	.	.	.	4d\	ef-	-ro	-la	-ſu-	4B\	.	.	.	.
*	*	*	*ij	*	*lig	*	*	*	*	*	*	*	*	*	*	*	*	*	*
4AA/	Rex	Mi-	ſo-	ſen-	1A	gen-	or-	ſuf-	fe-	4c/	.	.	.	.	1.c	gen-	or-	ſuf-	-fec-
4FF/	ef-	-ro	-la	-ſu-	.	.	.	.	.	4A/	fu-	clau-	fi-	-(um)	.	.	.	.	.
4AA/	-fu-	clau-	fi-	-(um)	.	.	.	.	.	4c/	.	.	.	.	.	.	.	.	.
!	!	!	!	!	!	!	!	!	!	!LO:TX:t=P:problem=kreska pseudotaktowa	!	!	!	!	!	!	!	!	!
4BB/	-dit	-ſit	-des	de	.	.	.	.	.	4d\	.	.	.	.	.	.	.	.	.
=26-	=26-	=26-	=26-	=26-	=26-	=26-	=26-	=26-	=26-	=26-	=26-	=26-	=26-	=26-	=26-	=26-	=26-	=26-	=26-
4C/	gen-	or-	ſuf-	fec-	1G	.	.	.	.	4e\	-dit	-ſit	-des	de-	.	.	.	.	.
4D/	.	.	.	.	.	.	.	.	.	4f\	.	.	.	.	.	.	.	.	.
4E\	.	.	.	.	.	.	.	.	.	4g\	.	.	.	.	2c\	-ti-	-di-	-fi-	-tu-
4C/	.	.	.	.	.	.	.	.	.	2e\	gen-	or-	ſuf-	-fec-	.	.	.	.	.
!LO:TX:t=P:problem=kreska pseudotaktowa	!	!	!	!	!	!	!	!	!	!	!	!	!	!	!	!	!	!	!
*	*	*	*	*	*Xlig	*	*	*	*	*	*	*	*	*	*	*	*	*	*
*	*	*	*	*	*lig	*	*	*	*	*	*	*	*	*	*	*	*	*	*
!	!	!	!	!	!	!	!	!	!	!	!	!	!	!	!LO:TX:t=P:problem=kreska pseudotaktowa	!	!	!	!
1D	.	.	.	.	1F	.	.	.	.	.	.	.	.	.	1A	-(um)	-ne	-cit	-i
.	.	.	.	.	.	.	.	.	.	4d\	.	.	.	.	.	.	.	.	.
.	.	.	.	.	.	.	.	.	.	1d\	-ti-	-di-	-fi-	-tu-	.	.	.	.	.
=27-	=27-	=27-	=27-	=27-	=27-	=27-	=27-	=27-	=27-	=27-	=27-	=27-	=27-	=27-	=27-	=27-	=27-	=27-	=27-
2.AA/	-ti-	-di-	fi-	-tu-	1E	.	.	.	.	.	.	.	.	.	2.A/	gen-	or-	ſuf-	-de-
!	!	!	!	!	!	!	!	!	!	!LO:TX:t=P:problem=kreska pseudotaktowa	!	!	!	!	!	!	!	!	!
.	.	.	.	.	.	.	.	.	.	2c/	-u(m)	-ne	-cit	-i	.	.	.	.	.
4AA/	-um	-ne	-cit	-i	.	.	.	.	.	.	.	.	.	.	4A/	-ti-	-di-	-fi-	-fec-
*	*	*	*Xij	*	*Xlig	*	*	*	*	*	*Xij	*Xij	*Xij	*Xij	*	*	*	*	*
*	*ij	*ij	*ij	*ij	*	*	*	*	*	*	*ij	*ij	*ij	*ij	*	*	*	*	*
!	!	!	!	!	!	!	!	!	!	!	!	!	!	!	!LO:TX:t=P:problem=kreska pseudotaktowa	!	!	!	!
2D/	Rex	Mi-	ſo-	ſen-	1D	-ti-	-di-	-fi-	-ctu-	2d\	Rex	Mi-	ſo-	ſen-	1F	-(um)	-ne	-cit	-tu-
4D/	ef-	-ro	-la	-ſu-	.	.	.	.	.	4f\	ef-	-ro	-la	-ſu-	.	.	.	.	.
!LO:TX:t=P:problem=kreska pseudotaktowa	!	!	!	!	!	!	!	!	!	!	!	!	!	!	!	!	!	!	!
4D/	-fu-	clau-	fi-	-(um)	.	.	.	.	.	4f\	-fu-	clau-	fi-	-(um)	.	.	.	.	.
=28-	=28-	=28-	=28-	=28-	=28-	=28-	=28-	=28-	=28-	=28-	=28-	=28-	=28-	=28-	=28-	=28-	=28-	=28-	=28-
*	*	*	*	*	*	*	*	*	*	*	*	*	*	*	*	*	*ij	*ij	*
2.C/	-dit	-ſit	-des	de-	1E	-um	-ne	-cit	-i	2.e\	-dit	-ſit	-des	de-	2.G/	.	Mi-	ſo-	-i
*	*	*	*	*	*	*	*	*	*	*	*	*	*	*	*	*	*	*	*ij
!	!	!	!	!	!	!	!	!	!	!LO:TX:t=P:problem=kreska pseudotaktowa	!	!	!	!	!	!	!	!	!
4BB/	.	.	.	.	.	.	.	.	.	4d\	.	.	.	.	4G/	Rex	-ro	-la	ſen-
*	*	*	*	*	*	*ij	*ij	*ij	*ij	*	*	*	*	*	*	*	*	*	*
2AA/	gen-	or-	ſuf-	-fec-	(>1E	gen-	or-	ſuf-	fec-	2c/	gen-	or-	ſuf-	-fec-	2A/	.	clau-	fi-	-ſu-
!LO:TX:a:t=P:problem=# below	!	!	!	!	!	!	!	!	!	!	!	!	!	!	!LO:TX:t=P:problem=kreska pseudotaktowa	!	!	!	!
2GG#X/	.	.	.	.	.	.	.	.	.	2B/	.	.	.	.	2B\	ef-	-ſit	-des	-(um)
=29-	=29-	=29-	=29-	=29-	=29-	=29-	=29-	=29-	=29-	=29-	=29-	=29-	=29-	=29-	=29-	=29-	=29-	=29-	=29-
1.AA	.	.	.	.	0E)	-ti-	-di-	-fi-	-ctu-	2.A/	.	.	.	.	2.c\	-fu-	or-	ſuf-	de-
.	.	.	.	.	.	.	.	.	.	4B/	.	.	.	.	4B\	-dit	.	.	.
!	!	!	!	!	!	!	!	!	!	!	!	!	!	!	!LO:n:vis=1	!	!	!	!
.	.	.	.	.	.	.	.	.	.	2c/	.	.	.	.	2A/	gen-	.	.	-fec-
2AA/	-ti-	-di-	-fi-	-tu-	.	.	.	.	.	2c/	-ti-	-di-	-fi-	-tu-	2G#X/	-ti-	-di-	-fi-	-tu-
=30-	=30-	=30-	=30-	=30-	=30-	=30-	=30-	=30-	=30-	=30-	=30-	=30-	=30-	=30-	=30-	=30-	=30-	=30-	=30-
!	!	!	!	!	!LO:TX:t=P:problem=podwójna kreska pseudotaktowa	!	!	!	!	!LO:TX:t=P:problem=podwójna kreska pseudotaktowa	!	!	!	!	!LO:TX:t=P:problem=podwójna kreska pseudotaktowa	!	!	!	!
0E;>	-um	-ne	-cit	-i	0E;>	-um	-ne	-cit	-i	0B;;	-u(m)	-ne	-cit	-i	0G#X;>	-u(m)	-ne	-cit	-i
*	*Xij	*Xij	*Xij	*Xij	*	*Xij	*Xij	*Xij	*Xij	*	*Xij	*Xij	*Xij	*Xij	*	*	*Xij	*Xij	*Xij
!LO:LB:g=original	!	!	!	!	!LO:LB:g=original	!	!	!	!	!LO:LB:g=original	!	!	!	!	!LO:LB:g=original	!	!	!	!
=31||-	=31||-	=31||-	=31||-	=31||-	=31||-	=31||-	=31||-	=31||-	=31||-	=31||-	=31||-	=31||-	=31||-	=31||-	=31||-	=31||-	=31||-	=31||-	=31||-
*M3/1	*	*	*	*	*M3/1	*	*	*	*	*M3/1	*	*	*	*	*M3/1	*	*	*	*
!	!	!	!	!	!	!	!	!	!	!	!	!	!	!	!LO:TX:b:t=P:problem=# below	!	!	!	!
0E	Ge-	.	.	.	0B	Ge-	.	.	.	0e	Ge-	.	.	.	0G#X	Ge-	.	.	.
!	!	!	!	!	!	!	!	!	!	!	!	!	!	!	!LO:TX:t=P:problem=kreska pseudotaktowa	!	!	!	!
!	!	!	!	!	!LO:TX:t=P:problem=kreska pseudotaktowa	!	!	!	!	!	!	!	!	!	!LO:TX:b:t=P:problem=# below	!	!	!	!
1E	-ni-	.	.	.	1B	-ni-	.	.	.	1e	-ni-	.	.	.	1G#X	-ni-	.	.	.
=32-	=32-	=32-	=32-	=32-	=32-	=32-	=32-	=32-	=32-	=32-	=32-	=32-	=32-	=32-	=32-	=32-	=32-	=32-	=32-
!	!	!	!	!	!	!	!	!	!	!	!	!	!	!	!LO:TX:b:t=P:problem=# below	!	!	!	!
0E	-to-	.	.	.	0B	-to-	.	.	.	0e	-to-	.	.	.	0G#X	-to-	.	.	.
!LO:TX:t=P:problem=kreska pseudotaktowa	!	!	!	!	!	!	!	!	!	!LO:TX:t=P:problem=kreska pseudotaktowa	!	!	!	!	!LO:TX:t=P:problem=kreska pseudotaktowa	!	!	!	!
1AA	-ri	.	.	.	1c	-ri	.	.	.	1e	-ri	.	.	.	1A	-ri	.	.	.
=33-	=33-	=33-	=33-	=33-	=33-	=33-	=33-	=33-	=33-	=33-	=33-	=33-	=33-	=33-	=33-	=33-	=33-	=33-	=33-
!	!	!	!	!	!	!	!	!	!	!	!	!	!	!	!LO:TX:b:t=P:problem=# below	!	!	!	!
0E	ge-	.	.	.	0B	ge-	.	.	.	0e	ge-	.	.	.	0G#X	ge-	.	.	.
!	!	!	!	!	!	!	!	!	!	!	!	!	!	!	!LO:TX:t=P:problem=kreska pseudotaktowa	!	!	!	!
1A	-ni-	.	.	.	1c	-ni-	.	.	.	1e	-ni-	.	.	.	1A	-ni-	.	.	.
=34-	=34-	=34-	=34-	=34-	=34-	=34-	=34-	=34-	=34-	=34-	=34-	=34-	=34-	=34-	=34-	=34-	=34-	=34-	=34-
0G	-to-	.	.	.	0d	-to-	.	.	.	0g	-to-	.	.	.	0B	-to-	.	.	.
!LO:TX:t=P:problem=kreska pseudotaktowa	!	!	!	!	!LO:TX:t=P:problem=kreska pseudotaktowa	!	!	!	!	!LO:TX:t=P:problem=kreska pseudotaktowa	!	!	!	!	!LO:TX:t=P:problem=kreska pseudotaktowa	!	!	!	!
1G	-q(ue)	.	.	.	1d	-q(ue)	.	.	.	1g	-q(ue)	.	.	.	1B	-q(ue)	.	.	.
=35-	=35-	=35-	=35-	=35-	=35-	=35-	=35-	=35-	=35-	=35-	=35-	=35-	=35-	=35-	=35-	=35-	=35-	=35-	=35-
1.C	Laus	.	.	.	1.e	Laus	.	.	.	1.g	Laus	.	.	.	1.c	Laus	.	.	.
2D/	et	.	.	.	2d\	et	.	.	.	2f\	et	.	.	.	2B\	et	.	.	.
!LO:TX:t=P:problem=kreska pseudotaktowa	!	!	!	!	!LO:TX:t=P:problem=kreska pseudotaktowa	!	!	!	!	!LO:TX:t=P:problem=kreska pseudotaktowa	!	!	!	!	!	!	!	!	!
1F	iu-	.	.	.	1c	iu-	.	.	.	1f	iu-	.	.	.	2A/	iu-	.	.	.
!	!	!	!	!	!	!	!	!	!	!	!	!	!	!	!LO:TX:t=P:problem=kreska pseudotaktowa	!	!	!	!
.	.	.	.	.	.	.	.	.	.	.	.	.	.	.	2A/	-bi-	.	.	.
=36-	=36-	=36-	=36-	=36-	=36-	=36-	=36-	=36-	=36-	=36-	=36-	=36-	=36-	=36-	=36-	=36-	=36-	=36-	=36-
1G	-bi-	.	.	.	1B	-bi-	.	.	.	1d	-bi-	.	.	.	0Gny	-la-	.	.	.
1.D	-la-	.	.	.	1.A	-la-	.	.	.	1.d	-la-	.	.	.	.	.	.	.	.
!	!	!	!	!	!	!	!	!	!	!	!	!	!	!	!LO:TX:a:t=P:problem=# above	!	!	!	!
.	.	.	.	.	.	.	.	.	.	.	.	.	.	.	1F#X	-ti-	.	.	.
2D/	-ti-	.	.	.	2A/	-ti-	.	.	.	2d\	-ti-	.	.	.	.	.	.	.	.
=37-	=37-	=37-	=37-	=37-	=37-	=37-	=37-	=37-	=37-	=37-	=37-	=37-	=37-	=37-	=37-	=37-	=37-	=37-	=37-
!LO:TX:t=P:problem=kreska pseudotaktowa	!	!	!	!	!LO:TX:t=P:problem=kreska pseudotaktowa	!	!	!	!	!LO:TX:t=P:problem=kreska pseudotaktowa	!	!	!	!	!LO:TX:t=P:problem=kreska pseudotaktowa	!	!	!	!
0.GGny	-o	.	.	.	0.B	-o	.	.	.	0.d	-o	.	.	.	0.G	-o	.	.	.
=38-	=38-	=38-	=38-	=38-	=38-	=38-	=38-	=38-	=38-	=38-	=38-	=38-	=38-	=38-	=38-	=38-	=38-	=38-	=38-
!	!	!	!	!	!	!	!	!	!	!	!	!	!	!	!LO:TX:a:t=P:problem=# above	!	!	!	!
0D	ſa-	.	.	.	0A	ſa-	.	.	.	0d	ſa-	.	.	.	0F#X	ſa-	.	.	.
!	!	!	!	!	!	!	!	!	!	!	!	!	!	!	!LO:TX:t=P:problem=kreska pseudotaktowa	!	!	!	!
1G	-lus	.	.	.	1B	-lus	.	.	.	1d	-lus	.	.	.	1G	-lus	.	.	.
=39-	=39-	=39-	=39-	=39-	=39-	=39-	=39-	=39-	=39-	=39-	=39-	=39-	=39-	=39-	=39-	=39-	=39-	=39-	=39-
0F	.	.	.	.	0c	ho-	.	.	.	0f	.	.	.	.	0A	ho-	.	.	.
!	!	!	!	!	!LO:TX:t=P:problem=kreska pseudotaktowa	!	!	!	!	!LO:TX:t=P:problem=kreska pseudotaktowa	!	!	!	!	!LO:TX:t=P:problem=kreska pseudotaktowa	!	!	!	!
1F	ho-	.	.	.	1c	-nor	.	.	.	1f	ho-	.	.	.	1A	-nor	.	.	.
=40-	=40-	=40-	=40-	=40-	=40-	=40-	=40-	=40-	=40-	=40-	=40-	=40-	=40-	=40-	=40-	=40-	=40-	=40-	=40-
0F	-nor	.	.	.	0f	vir-	.	.	.	0a	-nor	.	.	.	0c	vir-	.	.	.
!	!	!	!	!	!	!	!	!	!	!	!	!	!	!	!LO:TX:t=P:problem=kreska pseudotaktowa	!	!	!	!
!LO:TX:t=P:problem=kreska pseudotaktowa	!	!	!	!	!	!	!	!	!	!	!	!	!	!	!	!	!	!	!
1C	vir-	.	.	.	1e	.	.	.	.	1g	vir-	.	.	.	1c	.	.	.	.
=41-	=41-	=41-	=41-	=41-	=41-	=41-	=41-	=41-	=41-	=41-	=41-	=41-	=41-	=41-	=41-	=41-	=41-	=41-	=41-
1.D	-t(us)	.	.	.	1.d	-t(us)	.	.	.	1.f	-t(us)	.	.	.	1.A	-t(us)	.	.	.
2E\	quo-	.	.	.	4c\	quo-	.	.	.	2g\	quo-	.	.	.	2G/	quo-	.	.	.
.	.	.	.	.	4B\	.	.	.	.	.	.	.	.	.	.	.	.	.	.
!	!	!	!	!	!LO:TX:t=P:problem=kreska pseudotaktowa	!	!	!	!	!	!	!	!	!	!	!	!	!	!
1.F	.	.	.	.	1A	.	.	.	.	2a\	.	.	.	.	2F/ny	.	.	.	.
!	!	!	!	!	!	!	!	!	!	!LO:TX:t=P:problem=kreska pseudotaktowa	!	!	!	!	!LO:TX:t=P:problem=kreska pseudotaktowa	!	!	!	!
.	.	.	.	.	.	.	.	.	.	2g\	.	.	.	.	2G/	.	.	.	.
=42-	=42-	=42-	=42-	=42-	=42-	=42-	=42-	=42-	=42-	=42-	=42-	=42-	=42-	=42-	=42-	=42-	=42-	=42-	=42-
!	!	!	!	!	!	!	!	!	!	!	!	!	!	!	!LO:TX:t=P:problem=kreska pseudotaktowa	!	!	!	!
.	.	.	.	.	0d	.	.	.	.	1f	.	.	.	.	0.A	-que	.	.	.
2G\	.	.	.	.	.	.	.	.	.	.	.	.	.	.	.	.	.	.	.
0A	.	.	.	.	.	.	.	.	.	0e	.	.	.	.	.	.	.	.	.
!	!	!	!	!	!LO:TX:b:t=P:problem=# below	!	!	!	!	!	!	!	!	!	!	!	!	!	!
.	.	.	.	.	1c#X	.	.	.	.	.	.	.	.	.	.	.	.	.	.
=43-	=43-	=43-	=43-	=43-	=43-	=43-	=43-	=43-	=43-	=43-	=43-	=43-	=43-	=43-	=43-	=43-	=43-	=43-	=43-
!LO:TX:t=P:problem=kreska pseudotaktowa	!	!	!	!	!	!	!	!	!	!LO:TX:b:t=P:problem=# below	!	!	!	!	!	!	!	!	!
0.D	-que	.	.	.	1d	-que	.	.	.	1f#X,<	-que	.	.	.	1A	ſit	.	.	.
!	!	!	!	!	!	!	!	!	!	!LO:TX:b:t=P:problem=# below	!	!	!	!	!	!	!	!	!
.	.	.	.	.	1d	ſit	.	.	.	1f#X	ſit	.	.	.	1A	et	.	.	.
!	!	!	!	!	!LO:TX:t=P:problem=kreska pseudotaktowa	!	!	!	!	!LO:TX:t=P:problem=kreska pseudotaktowa	!	!	!	!	!LO:TX:t=P:problem=kreska pseudotaktowa	!	!	!	!
.	.	.	.	.	1B	et	.	.	.	1g	.	.	.	.	1B	.	.	.	.
=44-	=44-	=44-	=44-	=44-	=44-	=44-	=44-	=44-	=44-	=44-	=44-	=44-	=44-	=44-	=44-	=44-	=44-	=44-	=44-
*	*	*	*	*	*	*	*	*	*	*col	*	*	*	*	*	*	*	*	*
00.r	.	.	.	.	0A	be-	.	.	.	1a	et	.	.	.	0c	be-	.	.	.
.	.	.	.	.	.	.	.	.	.	1e	be-	.	.	.	.	.	.	.	.
!	!	!	!	!	!	!	!	!	!	!	!	!	!	!	!LO:TX:t=P:problem=kreska pseudotaktowa	!	!	!	!
.	.	.	.	.	1B	-ne-	.	.	.	0g	-ne-	.	.	.	1B	-ne-	.	.	.
=45-	=45-	=45-	=45-	=45-	=45-	=45-	=45-	=45-	=45-	=45-	=45-	=45-	=45-	=45-	=45-	=45-	=45-	=45-	=45-
.	.	.	.	.	0d	-dic-	.	.	.	.	.	.	.	.	0A	-dic-	.	.	.
!	!	!	!	!	!	!	!	!	!	!LO:TX:b:t=P:problem=# below	!	!	!	!	!	!	!	!	!
.	.	.	.	.	.	.	.	.	.	1.f#X	-dic-	.	.	.	.	.	.	.	.
.	.	.	.	.	1d	-ti-	.	.	.	.	.	.	.	.	1A	-ti-	.	.	.
.	.	.	.	.	.	.	.	.	.	2f#\	-ti-	.	.	.	.	.	.	.	.
*	*	*	*	*	*	*	*	*	*	*Xcol	*	*	*	*	*	*	*	*	*
=46-	=46-	=46-	=46-	=46-	=46-	=46-	=46-	=46-	=46-	=46-	=46-	=46-	=46-	=46-	=46-	=46-	=46-	=46-	=46-
!	!	!	!	!	!LO:TX:t=P:problem=kreska pseudotaktowa	!	!	!	!	!LO:TX:t=P:problem=kreska pseudotaktowa	!	!	!	!	!	!	!	!	!
!	!	!	!	!	!	!	!	!	!	!	!	!	!	!	!LO:TX:a:t=P:problem=# above	!	!	!	!
1r	.	.	.	.	0.G	-o	.	.	.	0.g	-o	.	.	.	1B#X,<	-o	.	.	.
1G	Pro-	.	.	.	.	.	.	.	.	.	.	.	.	.	1B#	Pro-	.	.	.
!LO:TX:t=P:problem=kreska pseudotaktowa	!	!	!	!	!	!	!	!	!	!	!	!	!	!	!LO:TX:t=P:problem=kreska pseudotaktowa	!	!	!	!
1G	-ce-	.	.	.	.	.	.	.	.	.	.	.	.	.	1G	-ce-	.	.	.
=47-	=47-	=47-	=47-	=47-	=47-	=47-	=47-	=47-	=47-	=47-	=47-	=47-	=47-	=47-	=47-	=47-	=47-	=47-	=47-
1.D	-den-	.	.	.	1r	.	.	.	.	1r	.	.	.	.	1.F	-den-	.	.	.
.	.	.	.	.	1d	Pro-	.	.	.	1fny	Pro-	.	.	.	.	.	.	.	.
2C/	-ti	.	.	.	.	.	.	.	.	.	.	.	.	.	2E/	-ti	.	.	.
!	!	!	!	!	!LO:TX:t=P:problem=kreska pseudotaktowa	!	!	!	!	!LO:TX:t=P:problem=kreska pseudotaktowa	!	!	!	!	!	!	!	!	!
2D/	ab	.	.	.	1d	-ce-	.	.	.	1f	-ce-	.	.	.	2F/	ab	.	.	.
2E\	U-	.	.	.	.	.	.	.	.	.	.	.	.	.	2G/	U-	.	.	.
=48-	=48-	=48-	=48-	=48-	=48-	=48-	=48-	=48-	=48-	=48-	=48-	=48-	=48-	=48-	=48-	=48-	=48-	=48-	=48-
0.F	-tro-	.	.	.	1.A	-den-	.	.	.	1.c	-den-	.	.	.	0A	-tro-	.	.	.
.	.	.	.	.	2G/	-ti	.	.	.	2B/	.	.	.	.	.	.	.	.	.
!	!	!	!	!	!	!	!	!	!	!	!	!	!	!	!LO:TX:t=P:problem=kreska pseudotaktowa	!	!	!	!
.	.	.	.	.	2A/	ab	.	.	.	2c/	.	.	.	.	1A	-(que)	.	.	.
!	!	!	!	!	!LO:TX:t=P:problem=kreska pseudotaktowa	!	!	!	!	!LO:TX:t=P:problem=kreska pseudotaktowa	!	!	!	!	!	!	!	!	!
.	.	.	.	.	2B\	U-	.	.	.	2d\	.	.	.	.	.	.	.	.	.
=49-	=49-	=49-	=49-	=49-	=49-	=49-	=49-	=49-	=49-	=49-	=49-	=49-	=49-	=49-	=49-	=49-	=49-	=49-	=49-
!	!	!	!	!	!	!	!	!	!	!	!	!	!	!	!LO:TX:t=P:problem=takt niewidoczny - defekt źródła	!	!	!	!
1C	-(que)	.	.	.	0cny	-tro-	.	.	.	0e	.	.	.	.	1%3ryy	.	.	.	.
*	*ij	*	*	*	*	*	*	*	*	*	*	*	*	*	*	*	*	*	*
1A	Pro-	.	.	.	.	.	.	.	.	.	.	.	.	.	.	.	.	.	.
!LO:TX:t=P:problem=kreska pseudotaktowa	!	!	!	!	!LO:TX:t=P:problem=podwójna kreska pseudotaktowa	!	!	!	!	!LO:TX:t=P:problem=kreska pseudotaktowa	!	!	!	!	!	!	!	!	!
1A	-ce-	.	.	.	1c	-(que)	.	.	.	1e	-ti	.	.	.	.	.	.	.	.
=50-	=50-	=50-	=50-	=50-	=50||-	=50-	=50-	=50-	=50-	=50-	=50-	=50-	=50-	=50-	=50-	=50-	=50-	=50-	=50-
1.E	-den-	.	.	.	1r	.	.	.	.	1r	.	.	.	.	1.G	-den-	.	.	.
*	*	*	*	*	*	*ij	*	*	*	*	*	*	*	*	*	*	*	*	*
.	.	.	.	.	1e	Pro-	.	.	.	1g	Pro-	.	.	.	.	.	.	.	.
2D/	-ti	.	.	.	.	.	.	.	.	.	.	.	.	.	2E/	-ti	.	.	.
!	!	!	!	!	!LO:TX:t=P:problem=kreska pseudotaktowa	!	!	!	!	!LO:TX:t=P:problem=kreska pseudotaktowa	!	!	!	!	!	!	!	!	!
2E\	ab	.	.	.	1e	-ce-	.	.	.	1g	-ce-	.	.	.	2G/	ab	.	.	.
!	!	!	!	!	!	!	!	!	!	!	!	!	!	!	!LO:TX:t=P:problem=kreska pseudotaktowa	!	!	!	!
2F\	U-	.	.	.	.	.	.	.	.	.	.	.	.	.	2A/	U-	.	.	.
=51-	=51-	=51-	=51-	=51-	=51-	=51-	=51-	=51-	=51-	=51-	=51-	=51-	=51-	=51-	=51-	=51-	=51-	=51-	=51-
0G	-tro-	.	.	.	1.B	-den-	.	.	.	1.d	-den-	.	.	.	0Bny	-tro-	.	.	.
.	.	.	.	.	2A\	-ti	.	.	.	2c\	.	.	.	.	.	.	.	.	.
!LO:TX:t=P:problem=kreska pseudotaktowa	!	!	!	!	!	!	!	!	!	!	!	!	!	!	!LO:TX:t=P:problem=kreska pseudotaktowa	!	!	!	!
1G	-(que)	.	.	.	2B\	ab	.	.	.	2d\	.	.	.	.	1B	-(que)	.	.	.
*	*Xij	*	*	*	*	*	*	*	*	*	*	*	*	*	*	*	*	*	*
!	!	!	!	!	!LO:TX:t=P:problem=kreska pseudotaktowa	!	!	!	!	!	!	!	!	!	!	!	!	!	!
.	.	.	.	.	2c\	U-	.	.	.	2e\	.	.	.	.	.	.	.	.	.
=52-	=52-	=52-	=52-	=52-	=52-	=52-	=52-	=52-	=52-	=52-	=52-	=52-	=52-	=52-	=52-	=52-	=52-	=52-	=52-
1.D	ab	.	.	.	0d	-tro-	.	.	.	0f	.	.	.	.	1.A	ab	.	.	.
2E\	.	.	.	.	.	.	.	.	.	.	.	.	.	.	2G/	.	.	.	.
!	!	!	!	!	!	!	!	!	!	!LO:TX:t=P:problem=kreska pseudotaktowa	!	!	!	!	!	!	!	!	!
2F\	.	.	.	.	1d	-(que)	.	.	.	1f	-ti	.	.	.	2A/	.	.	.	.
*	*	*	*	*	*	*Xij	*	*	*	*	*	*	*	*	*	*	*	*	*
!	!	!	!	!	!	!	!	!	!	!	!	!	!	!	!LO:TX:t=P:problem=kreska pseudotaktowa	!	!	!	!
2G\	.	.	.	.	.	.	.	.	.	.	.	.	.	.	2B\	.	.	.	.
=53-	=53-	=53-	=53-	=53-	=53-	=53-	=53-	=53-	=53-	=53-	=53-	=53-	=53-	=53-	=53-	=53-	=53-	=53-	=53-
0A	.	.	.	.	0c	ab	.	.	.	2e\	ab	.	.	.	1c	.	.	.	.
.	.	.	.	.	.	.	.	.	.	2d\	.	.	.	.	.	.	.	.	.
.	.	.	.	.	.	.	.	.	.	2e\	.	.	.	.	1A	.	.	.	.
.	.	.	.	.	.	.	.	.	.	2f\	.	.	.	.	.	.	.	.	.
!	!	!	!	!	!LO:TX:t=P:problem=kreska pseudotaktowa	!	!	!	!	!LO:TX:t=P:problem=kreska pseudotaktowa	!	!	!	!	!LO:TX:t=P:problem=kreska pseudotaktowa	!	!	!	!
1E	U-	.	.	.	1c	U-	.	.	.	1g	u-	.	.	.	1G	.	.	.	.
=54-	=54-	=54-	=54-	=54-	=54-	=54-	=54-	=54-	=54-	=54-	=54-	=54-	=54-	=54-	=54-	=54-	=54-	=54-	=54-
*	*	*	*	*	*	*	*	*	*	*col	*	*	*	*	*	*	*	*	*
1F	-tro-	.	.	.	0c	-tro-	.	.	.	1f	-tro-	.	.	.	1A	U-	.	.	.
0G	.	.	.	.	.	.	.	.	.	0d	.	.	.	.	0G	-tro-	.	.	.
.	.	.	.	.	1B	.	.	.	.	.	.	.	.	.	.	.	.	.	.
=55-	=55-	=55-	=55-	=55-	=55-	=55-	=55-	=55-	=55-	=55-	=55-	=55-	=55-	=55-	=55-	=55-	=55-	=55-	=55-
!LO:TX:t=P:problem=kreska pseudotaktowa	!	!	!	!	!LO:TX:t=P:problem=kreska pseudotaktowa	!	!	!	!	!LO:TX:t=P:problem=kreska pseudotaktowa	!	!	!	!	!LO:TX:t=P:problem=kreska pseudotaktowa	!	!	!	!
0.C	-(que)	.	.	.	0.c	-(que)	.	.	.	0.e	-que	.	.	.	0.G	-(que)	.	.	.
*	*	*	*	*	*	*	*	*	*	*Xcol	*	*	*	*	*	*	*	*	*
=56-	=56-	=56-	=56-	=56-	=56-	=56-	=56-	=56-	=56-	=56-	=56-	=56-	=56-	=56-	=56-	=56-	=56-	=56-	=56-
1.G	Com-	.	.	.	1.B	Com-	.	.	.	1.d	Com-	.	.	.	1.G	Com-	.	.	.
!LO:TX:a:t=P:problem=# above	!	!	!	!	!	!	!	!	!	!	!	!	!	!	!	!	!	!	!
2F#X\	-par	.	.	.	2A/	-par	.	.	.	2d\	-par	.	.	.	2A/	-par	.	.	.
!	!	!	!	!	!	!	!	!	!	!LO:TX:t=P:problem=kreska pseudotaktowa	!	!	!	!	!LO:TX:t=P:problem=kreska pseudotaktowa	!	!	!	!
1G	ſit	.	.	.	2B\	ſit	.	.	.	1d	ſit	.	.	.	1G	ſit	.	.	.
!	!	!	!	!	!LO:TX:t=P:problem=kreska pseudotaktowa	!	!	!	!	!	!	!	!	!	!	!	!	!	!
.	.	.	.	.	2c\	lau-	.	.	.	.	.	.	.	.	.	.	.	.	.
=57-	=57-	=57-	=57-	=57-	=57-	=57-	=57-	=57-	=57-	=57-	=57-	=57-	=57-	=57-	=57-	=57-	=57-	=57-	=57-
1D	lau-	.	.	.	0d	-da-	.	.	.	1f	lau-	.	.	.	1A	lau-	.	.	.
1.A	-da-	.	.	.	.	.	.	.	.	1.e	-da-	.	.	.	1.A	-da-	.	.	.
.	.	.	.	.	1c	-ti-	.	.	.	.	.	.	.	.	.	.	.	.	.
2A\	-ti-	.	.	.	.	.	.	.	.	2e\	-ti-	.	.	.	2A/	-ti-	.	.	.
=58-	=58-	=58-	=58-	=58-	=58-	=58-	=58-	=58-	=58-	=58-	=58-	=58-	=58-	=58-	=58-	=58-	=58-	=58-	=58-
!LO:TX:t=P:problem=kreska pseudotaktowa	!	!	!	!	!LO:TX:t=P:problem=kreska pseudotaktowa	!	!	!	!	!LO:TX:t=P:problem=kreska pseudotaktowa	!	!	!	!	!LO:TX:t=P:problem=kreska pseudotaktowa	!	!	!	!
0.D	-o	.	.	.	0.d	-o	.	.	.	0.f	-o	.	.	.	0.A	-o	.	.	.
=59-	=59-	=59-	=59-	=59-	=59-	=59-	=59-	=59-	=59-	=59-	=59-	=59-	=59-	=59-	=59-	=59-	=59-	=59-	=59-
*	*ij	*	*	*	*	*ij	*	*	*	*	*ij	*	*	*	*	*ij	*	*	*
1.D	Com-	.	.	.	1.A	Com-	.	.	.	1.d	Com-	.	.	.	1.F	Com-	.	.	.
!LO:TX:a:t=P:problem=# below	!	!	!	!	!	!	!	!	!	!	!	!	!	!	!	!	!	!	!
2C#X/	-par	.	.	.	2A/	-par	.	.	.	2e\	-par	.	.	.	2E/	-par	.	.	.
!	!	!	!	!	!LO:TX:t=P:problem=kreska pseudotaktowa	!	!	!	!	!LO:TX:t=P:problem=kreska pseudotaktowa	!	!	!	!	!	!	!	!	!
1D	ſit	.	.	.	1A	ſit	.	.	.	1d	ſit	.	.	.	2F/	ſit	.	.	.
.	.	.	.	.	.	.	.	.	.	.	.	.	.	.	2G/	lau-	.	.	.
=60-	=60-	=60-	=60-	=60-	=60-	=60-	=60-	=60-	=60-	=60-	=60-	=60-	=60-	=60-	=60-	=60-	=60-	=60-	=60-
1AA	lau-	.	.	.	1c	lau-	.	.	.	1e	lau-	.	.	.	0A	-da-	.	.	.
1.E	-da-	.	.	.	1.B	-da-	.	.	.	1.e	-da-	.	.	.	.	.	.	.	.
!	!	!	!	!	!	!	!	!	!	!	!	!	!	!	!LO:TX:t=P:problem=kreska pseudotaktowa	!	!	!	!
!	!	!	!	!	!	!	!	!	!	!	!	!	!	!	!LO:TX:a:t=P:problem=# above	!	!	!	!
.	.	.	.	.	.	.	.	.	.	.	.	.	.	.	1G#X	-ti-	.	.	.
!	!	!	!	!	!LO:TX:t=P:problem=kreska pseudotaktowa	!	!	!	!	!	!	!	!	!	!	!	!	!	!
2E\	-ti-	.	.	.	2B\	-ti-	.	.	.	2e\	-ti-	.	.	.	.	.	.	.	.
=61-	=61-	=61-	=61-	=61-	=61-	=61-	=61-	=61-	=61-	=61-	=61-	=61-	=61-	=61-	=61-	=61-	=61-	=61-	=61-
0AA	-o	.	.	.	0c	-o	.	.	.	0e	-o	.	.	.	0A	-o	.	.	.
*	*Xij	*	*	*	*	*Xij	*	*	*	*	*Xij	*	*	*	*	*Xij	*	*	*
!	!	!	!	!	!	!	!	!	!	!LO:TX:t=P:problem=kreska pseudotaktowa	!	!	!	!	!	!	!	!	!
1FF	lau-	.	.	.	1c	lau-	.	.	.	1f	lau-	.	.	.	1A	lau-	.	.	.
=62-	=62-	=62-	=62-	=62-	=62-	=62-	=62-	=62-	=62-	=62-	=62-	=62-	=62-	=62-	=62-	=62-	=62-	=62-	=62-
0GG	-da-	.	.	.	0B	-da-	.	.	.	0d	-da-	.	.	.	0Gny	-da-	.	.	.
!	!	!	!	!	!LO:TX:t=P:problem=kreska pseudotaktowa	!	!	!	!	!	!	!	!	!	!LO:TX:t=P:problem=kreska pseudotaktowa	!	!	!	!
1GG	-ti-	.	.	.	1B	-ti-	.	.	.	1d	-ti-	.	.	.	1G	-ti-	.	.	.
=63-	=63-	=63-	=63-	=63-	=63-	=63-	=63-	=63-	=63-	=63-	=63-	=63-	=63-	=63-	=63-	=63-	=63-	=63-	=63-
*	*	*	*	*	*	*	*	*	*	*	*	*	*	*	*col	*	*	*	*
0Cny	-o	.	.	.	0c	-o	.	.	.	0e	-o	.	.	.	1G	-o	.	.	.
*	*	*	*	*	*	*	*	*	*	*	*	*	*	*	*	*ij	*	*	*
.	.	.	.	.	.	.	.	.	.	.	.	.	.	.	1E	lau-	.	.	.
*	*ij	*	*	*	*	*ij	*	*	*	*	*ij	*	*	*	*	*	*	*	*
!	!	!	!	!	!	!	!	!	!	!LO:TX:t=P:problem=kreska pseudotaktowa	!	!	!	!	!	!	!	!	!
1AA	lau-	.	.	.	1c	lau-	.	.	.	1e	lau-	.	.	.	0A	-da-	.	.	.
=64-	=64-	=64-	=64-	=64-	=64-	=64-	=64-	=64-	=64-	=64-	=64-	=64-	=64-	=64-	=64-	=64-	=64-	=64-	=64-
0E	-da-	.	.	.	0B	-da-	.	.	.	0e	-da-	.	.	.	.	.	.	.	.
!	!	!	!	!	!	!	!	!	!	!	!	!	!	!	!LO:TX:b:t=P:problem=# below	!	!	!	!
.	.	.	.	.	.	.	.	.	.	.	.	.	.	.	1.G#X	.	.	.	.
1E	-ti-	.	.	.	1B	-ti-	.	.	.	1e	-ti-	.	.	.	.	.	.	.	.
!	!	!	!	!	!	!	!	!	!	!	!	!	!	!	!LO:TX:b:t=P:problem=# below	!	!	!	!
.	.	.	.	.	.	.	.	.	.	.	.	.	.	.	2G#X/	-ti-	.	.	.
*	*	*	*	*	*	*	*	*	*	*	*	*	*	*	*Xcol	*	*	*	*
=65-	=65-	=65-	=65-	=65-	=65-	=65-	=65-	=65-	=65-	=65-	=65-	=65-	=65-	=65-	=65-	=65-	=65-	=65-	=65-
*M2/1	*	*	*	*	*M2/1	*	*	*	*	*M2/1	*	*	*	*	*M2/1	*	*	*	*
*	*	*	*	*	*	*	*	*	*	*	*	*	*	*	*met(c|)	*	*	*	*
*met(c|)	*	*	*	*	*met(c|)	*	*	*	*	*	*	*	*	*	*	*	*	*	*
!	!	!	!	!	!LO:TX:t=P:problem=kreska pseudotaktowa	!	!	!	!	!	!	!	!	!	!	!	!	!	!
*	*	*	*	*	*	*	*	*	*	*met(c|)	*	*	*	*	*	*	*	*	*
!	!	!	!	!	!	!	!	!	!	!LO:TX:t=P:problem=kreska pseudotaktowa	!	!	!	!	!	!	!	!	!
1AA	-o	.	.	.	1c	-o	.	.	.	1e	-o	.	.	.	2A/	-o	.	.	.
*	*Xij	*	*	*	*	*Xij	*	*	*	*	*Xij	*	*	*	*	*Xij	*	*	*
!	!	!	!	!	!	!	!	!	!	!	!	!	!	!	!LO:TX:t=P:problem=kreska pseudotaktowa	!	!	!	!
.	.	.	.	.	.	.	.	.	.	.	.	.	.	.	2.e\	A-	.	.	.
2.AA/	A-	.	.	.	2.e\	A-	.	.	.	2.a\	A-	.	.	.	.	.	.	.	.
.	.	.	.	.	.	.	.	.	.	.	.	.	.	.	4d\	.	.	.	.
.	.	.	.	.	.	.	.	.	.	.	.	.	.	.	4c\	.	.	.	.
4BB/	.	.	.	.	4d\	.	.	.	.	8g\L	.	.	.	.	4B\	.	.	.	.
.	.	.	.	.	.	.	.	.	.	8f\J	.	.	.	.	.	.	.	.	.
=66-	=66-	=66-	=66-	=66-	=66-	=66-	=66-	=66-	=66-	=66-	=66-	=66-	=66-	=66-	=66-	=66-	=66-	=66-	=66-
4C/	.	.	.	.	2c\	.	.	.	.	00e;;	-men.	.	.	.	2A/	.	.	.	.
4D/	.	.	.	.	.	.	.	.	.	.	.	.	.	.	.	.	.	.	.
!	!	!	!	!	!	!	!	!	!	!	!	!	!	!	!LO:TX:b:t=P:problem=# below	!	!	!	!
!	!	!	!	!	!	!	!	!	!	!	!	!	!	!	!LO:TX:t=P:problem=kreska pseudotaktowa	!	!	!	!
2E\	.	.	.	.	2B\	.	.	.	.	.	.	.	.	.	2G#X/	.	.	.	.
1AA	.	.	.	.	1c	.	.	.	.	.	.	.	.	.	1A	.	.	.	.
=67-	=67-	=67-	=67-	=67-	=67-	=67-	=67-	=67-	=67-	=67-	=67-	=67-	=67-	=67-	=67-	=67-	=67-	=67-	=67-
!	!	!	!	!	!	!	!	!	!	!	!	!	!	!	!LO:TX:b:t=P:problem=# below	!	!	!	!
0E;>	-men	.	.	.	0B;;	-men	.	.	.	.	.	.	.	.	0G#X;>	-men	.	.	.
=-	=-	=-	=-	=-	=-	=-	=-	=-	=-	=-	=-	=-	=-	=-	=-	=-	=-	=-	=-
*-	*-	*-	*-	*-	*-	*-	*-	*-	*-	*-	*-	*-	*-	*-	*-	*-	*-	*-	*-
!!!system-decoration: [(s1,s2,s3,s4)]
!!!RDF**kern: > = above
!!!RDF**kern: < = below
!!!EED: Antoni Szymański
!!!EEV: 2021-07-24
!!!ENC: Tomasz Grochalski
!!!END: 2021-03-06
!!!YEC: Copyright 2022 Narodowy Instytut Fryderyka Chopina (https://polishscores.org)
!!!YEM: License CC-BY-4.0 (https://creativecommons.org/licenses/by/4.0)
